public/images/logo.svg

<svg viewBox="0 0 25 32" xmlns="http://www.w3.org/2000/svg"><path d="M4.48098 15.9819C-0.114595 21.5476 11.5017 31.9636 13.4391 24.4579C14.6485 19.3697 9.08138 11.6173 3.99964 16.2223" fill="#C82E2E"/><path d="M23.9211 2.00147C24.163 -0.660393 21.7442 -0.418406 20.5349 1.27551L20.0511 1.03352C20.5061 1.5901 21.1285 1.98493 21.8257 2.15932C22.5229 2.33371 23.2578 2.27835 23.9211 2.00147ZM13.5286 4.23101C15.3652 3.33082 17.2687 2.54919 19.1932 1.76757C17.1395 2.12827 15.1278 2.69718 13.1892 3.46552C11.2253 4.22786 9.36816 5.24105 7.66399 6.47988C7.23991 6.79688 6.82387 7.1268 6.42801 7.48171C6.03214 7.83663 5.64839 8.20607 5.28719 8.59809C4.55848 9.38003 3.92617 10.2466 3.40382 11.1793C2.8845 12.1105 2.50061 13.1112 2.26379 14.1509C2.14785 14.6654 2.07104 15.188 2.03401 15.7141C2.01627 15.9763 2.00338 16.2376 2.0066 16.499C2.00983 16.7603 2.01788 17.0209 2.04127 17.2798C2.07997 17.0225 2.11867 16.7676 2.16705 16.5135C2.21542 16.2594 2.26701 16.0086 2.32828 15.7593C2.44749 15.2642 2.59448 14.7763 2.7685 14.2977C3.11334 13.3526 3.56795 12.4514 4.12298 11.6124C5.25591 9.95465 6.66985 8.50782 8.30093 7.33733C9.945 6.14432 11.6949 5.10453 13.5286 4.23101ZM1.65127 24.0438C1.70536 23.7549 1.75975 23.4645 1.80022 23.1698C1.17183 24.2824 0.676093 25.4649 0.323182 26.6931C0.238528 27.0021 0.163553 27.3247 0.108729 27.6474C0.0498161 27.977 0.0145129 28.3105 0.00309901 28.6452C-0.0101442 28.9991 0.0190899 29.3533 0.0901771 29.7002C0.130373 29.8872 0.189272 30.0696 0.265955 30.2447C0.286106 30.2899 0.307062 30.335 0.330442 30.3794L0.365917 30.4464L0.399779 30.506C0.449251 30.591 0.503077 30.6734 0.561036 30.7529C0.79107 31.0638 1.08249 31.324 1.41725 31.5176C1.73701 31.6971 2.08273 31.8258 2.442 31.8991C2.78052 31.9682 3.12528 32.002 3.47076 31.9999C3.64008 31.9999 3.80776 31.9951 3.97304 31.9814C4.13832 31.9677 4.3044 31.9491 4.46565 31.9265C5.10666 31.8306 5.73707 31.6737 6.34824 31.4579C6.65058 31.3482 6.94646 31.2344 7.23993 31.1062C7.5334 30.9779 7.81881 30.8392 8.09777 30.6835C7.8162 30.7215 7.53848 30.7633 7.26172 30.805L7.1577 30.8206C6.84649 30.8674 6.53688 30.9102 6.22809 30.9481C5.62081 31.029 5.0096 31.0769 4.39713 31.0917C3.81632 31.1121 3.23548 31.0524 2.67097 30.9142C2.41557 30.8492 2.17109 30.747 1.94536 30.6109C1.7369 30.4872 1.55561 30.3226 1.41243 30.1269C1.37695 30.0801 1.34147 30.0253 1.31406 29.9801L1.28583 29.9317L1.26568 29.8954C1.25735 29.8772 1.24902 29.8597 1.24091 29.8425C1.23645 29.8332 1.23207 29.8239 1.22779 29.8148C1.17786 29.7024 1.13818 29.5858 1.10927 29.4663C1.04611 29.1989 1.01204 28.9255 1.00768 28.6508C1.00123 28.0538 1.04437 27.4572 1.13668 26.8674C1.22537 26.2608 1.34066 25.651 1.45917 25.0363L1.63898 24.1095L1.65127 24.0438ZM8.35253 11.9948C8.60085 11.7522 8.87071 11.5327 9.15878 11.339C9.44975 11.1452 9.75453 10.9729 10.0706 10.8236C10.7084 10.5267 11.3794 10.3073 12.0693 10.1702C13.458 9.90083 14.8825 9.87137 16.2811 10.0831C16.9832 10.1846 17.676 10.3419 18.3531 10.5534C19.0355 10.7637 19.6982 11.0336 20.3333 11.36C20.9767 11.6904 21.5827 12.089 22.1409 12.549C22.7096 13.0183 23.2088 13.5661 23.6236 14.1759C23.8303 14.4866 24.0099 14.8145 24.1605 15.156C24.6214 16.1934 24.7683 17.3431 24.583 18.4632C24.4621 19.1898 24.231 19.8938 23.8977 20.5507C23.7363 20.8738 23.5559 21.187 23.3575 21.4888C23.1597 21.7872 22.9472 22.0755 22.7206 22.3527C21.8171 23.4405 20.7403 24.3715 19.5335 25.1081C18.9394 25.4751 18.3156 25.7916 17.6686 26.0543C17.3461 26.1834 17.018 26.2963 16.6858 26.3987C16.3541 26.4963 16.0167 26.5736 15.6756 26.6302C16.9581 26.1686 18.1604 25.5092 19.2392 24.6758C20.3127 23.8731 21.2633 22.9179 22.061 21.8405C22.2554 21.5735 22.4368 21.2976 22.602 21.0153C22.7683 20.7353 22.9185 20.4461 23.0519 20.149C23.3173 19.5674 23.4971 18.9504 23.5857 18.3172C23.7138 17.388 23.5788 16.4414 23.1963 15.5851C23.0677 15.2987 22.9151 15.0237 22.7399 14.7632C22.3833 14.2342 21.9545 13.7577 21.4661 13.3475C20.9699 12.9262 20.4321 12.5568 19.8608 12.2449C17.5005 10.9785 14.8203 10.4338 12.1531 10.6784C11.4837 10.746 10.8233 10.8839 10.1827 11.0898C9.86068 11.1945 9.54655 11.322 9.24263 11.4713C8.93242 11.6217 8.63477 11.7968 8.35253 11.9948ZM14.7477 29.7607C14.7956 29.7711 14.844 29.7789 14.8928 29.7841L14.8879 29.505L14.8831 29.2501C14.802 29.1385 14.7295 29.021 14.6662 28.8984C14.5338 28.6428 14.4159 28.38 14.3131 28.1112C14.2869 28.0456 14.2609 27.9794 14.2346 27.9127L14.2346 27.9126L14.2346 27.9126C14.1511 27.7002 14.0656 27.4827 13.9656 27.2642C13.8987 27.1168 13.8236 26.9733 13.7406 26.8343C13.6578 26.7862 13.5713 26.7449 13.4819 26.7108C13.4359 26.6939 13.3907 26.6786 13.3448 26.6657C13.2975 26.6535 13.2496 26.6441 13.2013 26.6374V26.7794V26.9125C13.1988 27.0028 13.1964 27.0835 13.1908 27.1642C13.2612 27.2826 13.325 27.4049 13.3819 27.5304C13.4743 27.7323 13.5582 27.9462 13.6442 28.1654C13.6555 28.1941 13.6668 28.2229 13.6782 28.2518C13.6847 28.2684 13.6912 28.285 13.6978 28.3016C13.7037 28.3166 13.7097 28.3316 13.7156 28.3467C13.8275 28.6379 13.9556 28.9225 14.0994 29.1993C14.1673 29.3293 14.2461 29.4545 14.3257 29.5813L14.3477 29.6163C14.432 29.6589 14.5197 29.6945 14.6098 29.7228C14.6556 29.7364 14.7014 29.7485 14.7471 29.7606L14.7477 29.7607ZM11.7468 28.087C11.7717 28.0945 11.7945 28.1032 11.8169 28.1118L11.817 28.1118C11.8309 28.1171 11.8447 28.1224 11.8589 28.1273L11.9605 28.1669C12.0282 28.1927 12.0895 28.2193 12.1491 28.2475C12.1699 28.3117 12.1978 28.3733 12.2258 28.4355C12.2369 28.4601 12.248 28.4847 12.2588 28.5097C12.3393 28.6836 12.4254 28.8584 12.5131 29.0363L12.5136 29.0372C12.523 29.0563 12.5324 29.0753 12.5419 29.0945L12.5631 29.1373L12.5631 29.1373C12.6353 29.2832 12.7085 29.4311 12.778 29.5833C12.8208 29.6769 12.8627 29.772 12.9022 29.8688C12.8547 30.0104 12.7906 30.1458 12.7111 30.2722C12.5924 30.2309 12.4926 30.1887 12.394 30.147C12.3654 30.1349 12.3368 30.1228 12.308 30.1108C12.2725 30.0237 12.2338 29.9366 12.1943 29.8495C12.1137 29.6753 12.0266 29.4994 11.9379 29.322C11.8492 29.1445 11.7589 28.9622 11.6735 28.7751C11.6524 28.7306 11.6331 28.6853 11.6138 28.6399L11.6136 28.6396L11.6135 28.6393C11.5922 28.5894 11.5709 28.5392 11.5469 28.4895C11.5693 28.4214 11.5963 28.3548 11.6275 28.2903L11.6783 28.1894C11.6915 28.1713 11.7026 28.154 11.7136 28.1368L11.7137 28.1366C11.7242 28.1202 11.7347 28.1039 11.7468 28.087Z" fill="#2C6C60"/></svg>

<svg viewBox="0 0 25 32" xmlns="http://www.w3.org/2000/svg"><path d="M4.481 15.982c-4.596 5.566 7.02 15.982 8.958 8.476 1.21-5.088-4.358-12.84-9.44-8.236" fill="#C82E2E"/><path d="M23.921 2.001c.242-2.661-2.177-2.42-3.386-.725l-.484-.242a3.339 3.339 0 0 0 3.87.967ZM13.53 4.231c1.836-.9 3.74-1.682 5.664-2.463-2.053.36-4.065.93-6.004 1.698A24.434 24.434 0 0 0 7.664 6.48c-.424.317-.84.647-1.236 1.002s-.78.724-1.14 1.116a13.365 13.365 0 0 0-1.884 2.581c-.52.931-.903 1.932-1.14 2.972a10.448 10.448 0 0 0-.223 3.129 21.5 21.5 0 0 1 .126-.767 13.58 13.58 0 0 1 .601-2.216c.345-.944.8-1.846 1.355-2.685a17.223 17.223 0 0 1 4.178-4.275 33.246 33.246 0 0 1 5.228-3.106ZM1.65 24.044c.054-.29.109-.58.15-.874a16.34 16.34 0 0 0-1.478 3.523c-.084.31-.16.632-.214.954-.06.33-.094.664-.106.998A4.43 4.43 0 0 0 .09 29.7a2.85 2.85 0 0 0 .24.68l.036.066.034.06a2.823 2.823 0 0 0 1.017 1.012c.32.18.666.308 1.025.381.339.07.683.103 1.029.1.17 0 .337-.004.502-.018.165-.013.331-.032.493-.055a10.177 10.177 0 0 0 1.882-.468c.303-.11.598-.224.892-.352a9.75 9.75 0 0 0 .858-.423c-.282.038-.56.08-.836.122l-.104.016c-.312.046-.621.09-.93.127a16.97 16.97 0 0 1-1.83.144 6.348 6.348 0 0 1-1.727-.178 2.69 2.69 0 0 1-.726-.303 1.796 1.796 0 0 1-.63-.63l-.03-.05-.02-.036-.024-.052a2.04 2.04 0 0 1-.132-.376 3.81 3.81 0 0 1-.101-.816c-.007-.597.036-1.194.129-1.784.088-.606.204-1.216.322-1.83l.18-.927.012-.066Zm6.702-12.05c.248-.242.518-.461.806-.655.29-.194.596-.366.912-.515a8.8 8.8 0 0 1 1.998-.654 12.384 12.384 0 0 1 4.212-.087 13.36 13.36 0 0 1 2.072.47c.682.21 1.345.48 1.98.807.644.33 1.25.729 1.808 1.189a7.79 7.79 0 0 1 1.483 1.627c.206.31.386.639.537.98a5.81 5.81 0 0 1 .422 3.307 7.24 7.24 0 0 1-.685 2.088 9.157 9.157 0 0 1-.54.938c-.198.298-.41.587-.637.864a12.837 12.837 0 0 1-3.188 2.755c-.594.367-1.217.684-1.864.946-.323.13-.651.242-.983.345a8.52 8.52 0 0 1-1.01.231 13.068 13.068 0 0 0 3.563-1.954 13.775 13.775 0 0 0 2.822-2.835 9.898 9.898 0 0 0 .99-1.692 6.623 6.623 0 0 0 .535-1.832 5.019 5.019 0 0 0-.39-2.732 5.536 5.536 0 0 0-.456-.822 6.846 6.846 0 0 0-1.274-1.415 9.552 9.552 0 0 0-1.605-1.103 13.663 13.663 0 0 0-7.708-1.567c-.67.068-1.33.206-1.97.412a7.137 7.137 0 0 0-.94.381c-.31.15-.608.326-.89.524Zm6.395 17.767c.048.01.096.018.145.023l-.005-.279-.005-.255a2.724 2.724 0 0 1-.217-.352 7.662 7.662 0 0 1-.353-.787l-.078-.198a13.21 13.21 0 0 0-.27-.649 4.325 4.325 0 0 0-.224-.43 1.773 1.773 0 0 0-.396-.168 1.277 1.277 0 0 0-.144-.029v.276c-.002.09-.005.17-.01.251.07.119.134.24.19.366.093.202.177.416.263.635l.034.087.02.05.018.045c.112.29.24.575.383.852.068.13.147.255.227.382l.022.035c.084.043.172.079.262.107l.137.038Zm-3.001-1.674a.985.985 0 0 1 .07.025l.042.015.101.04c.068.026.13.052.19.08.02.065.048.126.076.189l.033.074c.08.174.166.348.254.526v.001l.029.058.021.042c.072.146.146.294.215.446.043.094.085.189.124.286a1.881 1.881 0 0 1-.19.403 4.99 4.99 0 0 1-.404-.161 7.38 7.38 0 0 0-.114-.262 19.48 19.48 0 0 0-.256-.527 17.204 17.204 0 0 1-.324-.682c-.022-.05-.043-.1-.067-.15a1.62 1.62 0 0 1 .08-.2l.051-.1.036-.053a.478.478 0 0 1 .033-.05Z" fill="#2C6C60"/></svg>
